images/logotipo.svg

<svg width="113" height="118" viewBox="0 0 113 118" fill="none" xmlns="http://www.w3.org/2000/svg">
<path d="M7.66301 117.103H1.00089V81.0715H7.66301V117.103Z" fill="white"/>
<path d="M19.7674 117.103H13.1053V91.7215H19.7674V117.103ZM12.8004 85.1532C12.8004 84.1211 13.1288 83.2766 13.7856 82.6198C14.4424 81.9629 15.3182 81.6345 16.4129 81.6345C17.5076 81.6345 18.3834 81.9629 19.0402 82.6198C19.6971 83.2766 20.0255 84.1211 20.0255 85.1532C20.0255 86.1698 19.6971 87.0143 19.0402 87.6867C18.399 88.3592 17.5233 88.6954 16.4129 88.6954C15.3026 88.6954 14.419 88.3592 13.7621 87.6867C13.121 87.0143 12.8004 86.1698 12.8004 85.1532Z" fill="white"/>
<path d="M35.156 117.572C31.7468 117.572 29.0882 116.556 27.1802 114.523C25.2723 112.49 24.3183 109.581 24.3183 105.796V103.779C24.3183 99.7755 25.1941 96.6869 26.9456 94.5131C28.6972 92.3393 31.2072 91.2524 34.4757 91.2524C37.666 91.2524 40.0666 92.2767 41.6774 94.3254C43.2882 96.3584 44.1092 99.3767 44.1405 103.38V106.641H30.9335C31.0274 108.518 31.4418 109.894 32.1768 110.77C32.9118 111.63 34.0457 112.06 35.5783 112.06C37.799 112.06 39.6522 111.301 41.1379 109.784L43.7417 113.796C42.9285 114.922 41.7478 115.837 40.1995 116.54C38.6513 117.228 36.9701 117.572 35.156 117.572ZM30.9805 101.996H37.6191V101.386C37.5878 99.8694 37.3376 98.7199 36.8685 97.938C36.3993 97.156 35.5861 96.7651 34.4288 96.7651C33.2715 96.7651 32.427 97.1795 31.8953 98.0083C31.3792 98.8372 31.0743 100.166 30.9805 101.996Z" fill="white"/>
<path d="M47.0024 103.638C47.0024 99.4784 47.7062 96.3741 49.1136 94.3254C50.5211 92.2767 52.5698 91.2524 55.2597 91.2524C57.2145 91.2524 58.841 92.0969 60.139 93.7859V81.0715H66.8246V117.103H60.7958L60.4909 114.523C59.1303 116.556 57.3787 117.572 55.2362 117.572C52.5776 117.572 50.5446 116.556 49.1371 114.523C47.7452 112.49 47.0337 109.503 47.0024 105.562V103.638ZM53.6645 105.304C53.6645 107.806 53.9304 109.558 54.4621 110.558C54.9938 111.544 55.8931 112.036 57.1598 112.036C58.4735 112.036 59.4665 111.45 60.139 110.277V98.6886C59.4822 97.4375 58.4969 96.812 57.1833 96.812C55.9634 96.812 55.072 97.3046 54.509 98.2898C53.946 99.2751 53.6645 101.027 53.6645 103.544V105.304Z" fill="white"/>
<path d="M80.1488 107.321L78.366 109.315V117.103H71.7273V81.0715H78.366V100.542L79.187 99.322L83.7849 91.7215H91.6903L84.3244 102.184L92.394 117.103H84.7936L80.1488 107.321Z" fill="white"/>
<path d="M103.498 117.572C100.088 117.572 97.4297 116.556 95.5218 114.523C93.6138 112.49 92.6599 109.581 92.6599 105.796V103.779C92.6599 99.7755 93.5356 96.6869 95.2872 94.5131C97.0387 92.3393 99.5488 91.2524 102.817 91.2524C106.008 91.2524 108.408 92.2767 110.019 94.3254C111.63 96.3584 112.451 99.3767 112.482 103.38V106.641H99.2751C99.3689 108.518 99.7833 109.894 100.518 110.77C101.253 111.63 102.387 112.06 103.92 112.06C106.141 112.06 107.994 111.301 109.479 109.784L112.083 113.796C111.27 114.922 110.089 115.837 108.541 116.54C106.993 117.228 105.312 117.572 103.498 117.572ZM99.322 101.996H105.961V101.386C105.929 99.8694 105.679 98.7199 105.21 97.938C104.741 97.156 103.928 96.7651 102.77 96.7651C101.613 96.7651 100.769 97.1795 100.237 98.0083C99.7208 98.8372 99.4158 100.166 99.322 101.996Z" fill="white"/>
<path d="M12.2921 65.2607C12.2921 64.6977 12.0184 64.1816 11.4711 63.7125C10.9393 63.2277 9.74297 62.5786 7.88195 61.7654C5.14516 60.6551 3.26069 59.5056 2.22853 58.3171C1.21201 57.1285 0.703746 55.6507 0.703746 53.8835C0.703746 51.6628 1.50132 49.833 3.09648 48.3943C4.70728 46.9398 6.83415 46.2126 9.47711 46.2126C12.2608 46.2126 14.4893 46.932 16.1627 48.3708C17.836 49.8096 18.6727 51.741 18.6727 54.165H12.0341C12.0341 52.1006 11.1739 51.0685 9.45365 51.0685C8.74991 51.0685 8.17127 51.2874 7.71775 51.7253C7.26422 52.1632 7.03746 52.7731 7.03746 53.5551C7.03746 54.1181 7.28768 54.6185 7.78812 55.0564C8.28856 55.4786 9.46929 56.0885 11.3303 56.8861C14.0358 57.887 15.9438 59.0052 17.0541 60.2406C18.1801 61.4605 18.7431 63.0478 18.7431 65.0027C18.7431 67.2703 17.8908 69.0922 16.1862 70.4684C14.4815 71.8446 12.2452 72.5327 9.47711 72.5327C7.61609 72.5327 5.97402 72.173 4.55089 71.4537C3.12776 70.7186 2.00959 69.7021 1.19637 68.4041C0.398789 67.1061 0 65.7064 0 64.2051H6.31025C6.34153 65.3623 6.60739 66.2303 7.10783 66.8089C7.62391 67.3876 8.46059 67.6769 9.61786 67.6769C11.4007 67.6769 12.2921 66.8715 12.2921 65.2607Z" fill="white"/>
<path d="M22.4579 58.5517C22.4579 54.7045 23.365 51.6862 25.1791 49.4968C26.9932 47.3074 29.5032 46.2126 32.7092 46.2126C35.9464 46.2126 38.4721 47.3074 40.2862 49.4968C42.1003 51.6862 43.0073 54.7201 43.0073 58.5986V60.2172C43.0073 64.08 42.1081 67.0983 40.3096 69.272C38.5112 71.4458 35.9933 72.5327 32.7561 72.5327C29.5032 72.5327 26.9697 71.4458 25.1556 69.272C23.3572 67.0826 22.4579 64.0487 22.4579 60.1703V58.5517ZM29.1201 60.2172C29.1201 64.7524 30.3321 67.0201 32.7561 67.0201C34.9924 67.0201 36.1966 65.1278 36.3686 61.3432L36.3921 58.5517C36.3921 56.2371 36.0715 54.5247 35.4303 53.4143C34.7891 52.2883 33.8821 51.7253 32.7092 51.7253C31.5832 51.7253 30.6996 52.2883 30.0584 53.4143C29.4328 54.5247 29.1201 56.2371 29.1201 58.5517V60.2172Z" fill="white"/>
<path d="M59.9995 69.7412C58.6233 71.6022 56.7779 72.5327 54.4634 72.5327C52.1332 72.5327 50.366 71.7352 49.1618 70.14C47.9576 68.5292 47.3555 66.1912 47.3555 63.126V46.6818H53.9942V63.2902C54.0255 65.7611 54.8465 66.9966 56.4573 66.9966C57.9743 66.9966 59.069 66.3398 59.7414 65.0261V46.6818H66.427V72.0636H60.1872L59.9995 69.7412Z" fill="white"/>
<path d="M78.8683 66.5509H88.9084V72.0636H70.9864V67.9115L80.7919 52.2179H71.2209V46.6818H88.7677V50.6932L78.8683 66.5509Z" fill="white"/>
<path d="M105.713 72.0636C105.525 71.6726 105.338 71.0158 105.15 70.0931C103.961 71.7195 102.351 72.5327 100.318 72.5327C98.1907 72.5327 96.4235 71.829 95.016 70.4215C93.6241 69.014 92.9282 67.1921 92.9282 64.9557C92.9282 62.2971 93.7727 60.2406 95.4617 58.7862C97.1663 57.3318 99.6138 56.589 102.804 56.5577H104.822V54.5168C104.822 53.3752 104.626 52.5698 104.235 52.1006C103.844 51.6315 103.273 51.3969 102.523 51.3969C100.865 51.3969 100.036 52.3665 100.036 54.3057H93.3974C93.3974 51.9599 94.2732 50.0285 96.0247 48.5115C97.7919 46.9789 100.02 46.2126 102.71 46.2126C105.494 46.2126 107.644 46.9398 109.161 48.3943C110.694 49.833 111.46 51.8973 111.46 54.5872V66.5274C111.491 68.7169 111.804 70.4293 112.399 71.6648V72.0636H105.713ZM101.795 67.325C102.53 67.325 103.156 67.1764 103.672 66.8793C104.188 66.5822 104.571 66.2303 104.822 65.8237V60.5456H103.226C102.1 60.5456 101.209 60.9053 100.552 61.6247C99.9109 62.3441 99.5903 63.3058 99.5903 64.51C99.5903 66.3867 100.325 67.325 101.795 67.325Z" fill="white"/>
<path d="M9.96973 30.9883C11.8933 30.9883 12.8707 29.7372 12.902 27.235H19.1419C19.1106 30.003 18.2583 32.2394 16.5849 33.944C14.9116 35.6486 12.7534 36.501 10.1105 36.501C6.84197 36.501 4.34759 35.4844 2.62732 33.4514C0.90705 31.4183 0.0312776 28.4235 0 24.4669V22.4495C0 18.4616 0.844495 15.4199 2.53349 13.3243C4.23811 11.2287 6.74814 10.1809 10.0636 10.1809C12.8629 10.1809 15.068 11.0488 16.6788 12.7847C18.2896 14.505 19.1106 16.9525 19.1419 20.1271H12.902C12.8864 18.704 12.6518 17.6093 12.1983 16.843C11.7447 16.0767 10.9941 15.6935 9.94627 15.6935C8.789 15.6935 7.96015 16.108 7.45971 16.9368C6.95926 17.75 6.6934 19.3374 6.66213 21.6988V24.2792C6.66213 26.3436 6.76378 27.7901 6.96708 28.619C7.17039 29.4322 7.50662 30.0343 7.97579 30.4253C8.44495 30.8006 9.1096 30.9883 9.96973 30.9883Z" fill="white"/>
<path d="M35.6687 36.501C32.2594 36.501 29.6008 35.4844 27.6929 33.4514C25.7849 31.4183 24.831 28.5095 24.831 24.7249V22.7075C24.831 18.704 25.7067 15.6153 27.4583 13.4415C29.2098 11.2678 31.7199 10.1809 34.9884 10.1809C38.1787 10.1809 40.5792 11.2052 42.19 13.2539C43.8008 15.2869 44.6219 18.3052 44.6531 22.3087V25.5694H31.4462C31.54 27.4461 31.9544 28.8223 32.6895 29.6981C33.4245 30.5582 34.5583 30.9883 36.0909 30.9883C38.3116 30.9883 40.1648 30.2298 41.6505 28.7128L44.2544 32.7242C43.4411 33.8502 42.2604 34.765 40.7122 35.4688C39.1639 36.1569 37.4828 36.501 35.6687 36.501ZM31.4931 20.9247H38.1318V20.3148C38.1005 18.7978 37.8503 17.6484 37.3811 16.8664C36.9119 16.0845 36.0987 15.6935 34.9415 15.6935C33.7842 15.6935 32.9397 16.108 32.408 16.9368C31.8919 17.7657 31.5869 19.095 31.4931 20.9247ZM35.4341 0H42.8938L36.3724 7.27204H30.8363L35.4341 0Z" fill="white"/>
<path d="M62.1652 29.2289C62.1652 28.6659 61.8915 28.1498 61.3441 27.6807C60.8124 27.1959 59.616 26.5469 57.755 25.7336C55.0182 24.6233 53.1338 23.4738 52.1016 22.2853C51.0851 21.0967 50.5768 19.6189 50.5768 17.8517C50.5768 15.631 51.3744 13.8012 52.9695 12.3625C54.5803 10.9081 56.7072 10.1809 59.3502 10.1809C62.1339 10.1809 64.3624 10.9002 66.0358 12.339C67.7091 13.7778 68.5458 15.7092 68.5458 18.1332H61.9071C61.9071 16.0689 61.047 15.0367 59.3267 15.0367C58.623 15.0367 58.0443 15.2556 57.5908 15.6935C57.1373 16.1314 56.9105 16.7413 56.9105 17.5233C56.9105 18.0863 57.1607 18.5867 57.6612 19.0246C58.1616 19.4468 59.3424 20.0568 61.2034 20.8543C63.9089 21.8552 65.8168 22.9734 66.9272 24.2089C68.0532 25.4287 68.6162 27.016 68.6162 28.9709C68.6162 31.2385 67.7638 33.0604 66.0592 34.4366C64.3546 35.8128 62.1182 36.501 59.3502 36.501C57.4892 36.501 55.8471 36.1413 54.424 35.4219C53.0008 34.6869 51.8826 33.6703 51.0694 32.3723C50.2719 31.0743 49.8731 29.6746 49.8731 28.1733H56.1833C56.2146 29.3306 56.4805 30.1985 56.9809 30.7772C57.497 31.3558 58.3337 31.6451 59.4909 31.6451C61.2737 31.6451 62.1652 30.8397 62.1652 29.2289Z" fill="white"/>
<path d="M87.3245 36.0318C87.1369 35.6408 86.9492 34.984 86.7615 34.0613C85.573 35.6877 83.9622 36.501 81.9292 36.501C79.8023 36.501 78.0351 35.7972 76.6276 34.3897C75.2357 32.9822 74.5398 31.1603 74.5398 28.924C74.5398 26.2654 75.3843 24.2089 77.0733 22.7544C78.7779 21.3 81.2254 20.5572 84.4157 20.5259H86.4331V18.4851C86.4331 17.3434 86.2376 16.538 85.8467 16.0689C85.4557 15.5997 84.8849 15.3651 84.1342 15.3651C82.4765 15.3651 81.6477 16.3347 81.6477 18.2739H75.009C75.009 15.9281 75.8848 13.9967 77.6363 12.4798C79.4035 10.9472 81.632 10.1809 84.3219 10.1809C87.1056 10.1809 89.2559 10.9081 90.7729 12.3625C92.3055 13.8012 93.0718 15.8656 93.0718 18.5554V30.4957C93.1031 32.6851 93.4158 34.3975 94.0101 35.633V36.0318H87.3245ZM83.407 31.2932C84.142 31.2932 84.7676 31.1447 85.2837 30.8475C85.7998 30.5504 86.1829 30.1985 86.4331 29.7919V24.5138H84.838C83.712 24.5138 82.8206 24.8735 82.1637 25.5929C81.5225 26.3123 81.2019 27.2741 81.2019 28.4782C81.2019 30.3549 81.937 31.2932 83.407 31.2932Z" fill="white"/>
<path d="M112.93 17.0541L110.725 16.8664C108.91 16.8664 107.683 17.664 107.042 19.2592V36.0318H100.379V10.65H106.643L106.83 13.3946C107.878 11.2521 109.325 10.1809 111.17 10.1809C111.921 10.1809 112.531 10.2825 113 10.4858L112.93 17.0541Z" fill="white"/>
</svg>

<svg width="113" height="118" fill="none" xmlns="http://www.w3.org/2000/svg"><path d="M7.663 117.103H1.001V81.072h6.662v36.031zM19.767 117.103h-6.662V91.722h6.662v25.381zM12.8 85.153c0-1.032.329-1.876.986-2.533.656-.657 1.532-.986 2.627-.986 1.095 0 1.97.329 2.627.986.657.657.986 1.501.986 2.533 0 1.017-.329 1.861-.986 2.534-.641.672-1.517 1.008-2.627 1.008-1.11 0-1.994-.336-2.65-1.008-.642-.673-.963-1.517-.963-2.534zM35.156 117.572c-3.41 0-6.068-1.016-7.976-3.049-1.908-2.033-2.862-4.942-2.862-8.727v-2.017c0-4.004.876-7.092 2.628-9.266 1.751-2.174 4.261-3.26 7.53-3.26 3.19 0 5.59 1.024 7.201 3.072 1.611 2.033 2.432 5.052 2.464 9.055v3.261H30.934c.093 1.877.508 3.253 1.243 4.129.735.86 1.869 1.29 3.401 1.29 2.221 0 4.074-.759 5.56-2.276l2.604 4.012c-.813 1.126-1.994 2.041-3.542 2.744-1.549.688-3.23 1.032-5.044 1.032zm-4.175-15.576h6.638v-.61c-.031-1.517-.281-2.666-.75-3.448-.47-.782-1.283-1.173-2.44-1.173s-2.002.415-2.534 1.243c-.516.83-.82 2.158-.915 3.988zM47.002 103.638c0-4.16.704-7.264 2.112-9.313 1.407-2.048 3.456-3.073 6.146-3.073 1.955 0 3.581.845 4.879 2.534V81.07h6.686v36.032h-6.03l-.304-2.58c-1.36 2.033-3.112 3.049-5.255 3.049-2.658 0-4.691-1.016-6.099-3.049-1.392-2.033-2.103-5.02-2.135-8.961v-1.924zm6.662 1.666c0 2.502.266 4.254.798 5.254.532.986 1.431 1.478 2.698 1.478 1.314 0 2.307-.586 2.979-1.759V98.689c-.657-1.251-1.642-1.877-2.956-1.877-1.22 0-2.111.493-2.674 1.478-.563.985-.845 2.737-.845 5.254v1.76zM80.149 107.321l-1.783 1.994v7.788h-6.639V81.072h6.639v19.47l.821-1.22 4.598-7.6h7.905l-7.366 10.462 8.07 14.919h-7.6l-4.645-9.782zM103.498 117.572c-3.41 0-6.068-1.016-7.976-3.049-1.908-2.033-2.862-4.942-2.862-8.727v-2.017c0-4.004.876-7.092 2.627-9.266 1.752-2.174 4.262-3.26 7.53-3.26 3.191 0 5.591 1.024 7.202 3.072 1.611 2.033 2.432 5.052 2.463 9.055v3.261H99.275c.094 1.877.508 3.253 1.243 4.129.735.86 1.869 1.29 3.402 1.29 2.221 0 4.074-.759 5.559-2.276l2.604 4.012c-.813 1.126-1.994 2.041-3.542 2.744-1.548.688-3.229 1.032-5.043 1.032zm-4.176-15.576h6.639v-.61c-.032-1.517-.282-2.666-.751-3.448-.469-.782-1.282-1.173-2.44-1.173-1.157 0-2.001.415-2.533 1.243-.516.83-.821 2.158-.915 3.988zM12.292 65.26c0-.562-.274-1.078-.82-1.548-.533-.484-1.729-1.133-3.59-1.947-2.737-1.11-4.621-2.26-5.653-3.448C1.212 57.13.704 55.651.704 53.883c0-2.22.797-4.05 2.392-5.489 1.611-1.454 3.738-2.181 6.381-2.181 2.784 0 5.012.719 6.686 2.158 1.673 1.439 2.51 3.37 2.51 5.794h-6.639c0-2.064-.86-3.096-2.58-3.096-.704 0-1.283.218-1.736.656-.454.438-.68 1.048-.68 1.83 0 .563.25 1.063.75 1.501.5.423 1.681 1.033 3.542 1.83 2.706 1.001 4.614 2.12 5.724 3.355 1.126 1.22 1.69 2.807 1.69 4.762 0 2.267-.853 4.09-2.558 5.465-1.704 1.377-3.94 2.065-6.709 2.065-1.86 0-3.503-.36-4.926-1.08-1.423-.734-2.541-1.75-3.355-3.049A7.877 7.877 0 010 64.205h6.31c.032 1.157.297 2.025.798 2.604.516.579 1.353.868 2.51.868 1.783 0 2.674-.806 2.674-2.416zM22.458 58.552c0-3.847.907-6.866 2.721-9.055 1.814-2.19 4.324-3.284 7.53-3.284 3.237 0 5.763 1.094 7.577 3.284 1.814 2.19 2.721 5.223 2.721 9.102v1.618c0 3.863-.899 6.881-2.697 9.055-1.799 2.174-4.317 3.26-7.554 3.26-3.253 0-5.786-1.086-7.6-3.26-1.799-2.19-2.698-5.223-2.698-9.102v-1.618zm6.662 1.665c0 4.535 1.212 6.803 3.636 6.803 2.236 0 3.44-1.892 3.613-5.677l.023-2.791c0-2.315-.32-4.027-.962-5.138-.64-1.126-1.548-1.689-2.72-1.689-1.127 0-2.01.563-2.652 1.69-.625 1.11-.938 2.822-.938 5.137v1.665zM60 69.741c-1.377 1.861-3.222 2.792-5.537 2.792-2.33 0-4.097-.798-5.301-2.393-1.204-1.61-1.806-3.949-1.806-7.014V46.682h6.638V63.29c.032 2.471.852 3.707 2.463 3.707 1.517 0 2.612-.657 3.284-1.97V46.681h6.686v25.382h-6.24L60 69.74zM78.868 66.55h10.04v5.514H70.986v-4.152l9.806-15.694H71.22v-5.536h17.547v4.011l-9.9 15.858zM105.713 72.064c-.188-.391-.375-1.048-.563-1.97-1.189 1.626-2.799 2.439-4.832 2.439-2.127 0-3.894-.704-5.302-2.112-1.392-1.407-2.088-3.229-2.088-5.465 0-2.659.845-4.715 2.534-6.17 1.704-1.454 4.152-2.197 7.342-2.228h2.018v-2.041c0-1.142-.196-1.947-.587-2.416-.391-.47-.962-.704-1.712-.704-1.658 0-2.487.97-2.487 2.909h-6.639c0-2.346.876-4.277 2.628-5.794 1.767-1.533 3.995-2.3 6.685-2.3 2.784 0 4.934.728 6.451 2.182 1.533 1.439 2.299 3.503 2.299 6.193v11.94c.031 2.19.344 3.902.939 5.138v.399h-6.686zm-3.918-4.739c.735 0 1.361-.149 1.877-.446.516-.297.899-.649 1.15-1.055v-5.278h-1.596c-1.126 0-2.017.36-2.674 1.079-.641.72-.962 1.68-.962 2.885 0 1.877.735 2.815 2.205 2.815zM9.97 30.988c1.923 0 2.9-1.25 2.932-3.753h6.24c-.031 2.768-.884 5.004-2.557 6.709s-3.832 2.557-6.475 2.557c-3.268 0-5.762-1.017-7.483-3.05C.907 31.418.031 28.424 0 24.467V22.45c0-3.988.844-7.03 2.533-9.126 1.705-2.095 4.215-3.143 7.53-3.143 2.8 0 5.005.868 6.616 2.604 1.61 1.72 2.432 4.168 2.463 7.342h-6.24c-.016-1.423-.25-2.518-.704-3.284-.453-.766-1.204-1.15-2.252-1.15-1.157 0-1.986.415-2.486 1.244-.5.813-.767 2.4-.798 4.762v2.58c0 2.065.102 3.511.305 4.34.203.813.54 1.415 1.009 1.806.469.376 1.134.563 1.994.563zM35.669 36.501c-3.41 0-6.068-1.017-7.976-3.05-1.908-2.033-2.862-4.942-2.862-8.726v-2.018c0-4.003.876-7.092 2.627-9.266 1.752-2.173 4.262-3.26 7.53-3.26 3.19 0 5.591 1.024 7.202 3.073 1.61 2.033 2.432 5.051 2.463 9.055v3.26H31.446c.094 1.877.508 3.253 1.244 4.13.735.86 1.868 1.29 3.4 1.29 2.222 0 4.075-.76 5.56-2.276l2.604 4.011c-.813 1.126-1.994 2.041-3.542 2.745-1.548.688-3.23 1.032-5.043 1.032zm-4.176-15.576h6.639v-.61c-.032-1.517-.282-2.667-.75-3.449-.47-.782-1.283-1.172-2.44-1.172-1.158 0-2.002.414-2.534 1.243-.516.829-.821 2.158-.915 3.988zM35.434 0h7.46l-6.522 7.272h-5.536L35.434 0zM62.165 29.229c0-.563-.273-1.08-.82-1.548-.533-.485-1.729-1.134-3.59-1.947-2.737-1.11-4.621-2.26-5.653-3.449-1.017-1.188-1.525-2.666-1.525-4.433 0-2.221.797-4.05 2.392-5.49 1.611-1.454 3.738-2.181 6.381-2.181 2.784 0 5.012.72 6.686 2.158 1.673 1.439 2.51 3.37 2.51 5.794h-6.639c0-2.064-.86-3.096-2.58-3.096-.704 0-1.283.219-1.736.656-.454.438-.68 1.048-.68 1.83 0 .563.25 1.064.75 1.502.5.422 1.681 1.032 3.542 1.83 2.706 1 4.614 2.118 5.724 3.354 1.126 1.22 1.69 2.807 1.69 4.762 0 2.267-.853 4.09-2.558 5.466-1.704 1.376-3.94 2.064-6.709 2.064-1.86 0-3.503-.36-4.926-1.08-1.423-.734-2.541-1.75-3.355-3.049a7.878 7.878 0 01-1.196-4.199h6.31c.032 1.158.297 2.026.798 2.604.516.579 1.353.868 2.51.868 1.783 0 2.674-.805 2.674-2.416zM87.325 36.032c-.188-.391-.376-1.048-.564-1.97-1.188 1.626-2.799 2.439-4.832 2.439-2.127 0-3.894-.704-5.301-2.111-1.392-1.408-2.088-3.23-2.088-5.466 0-2.659.844-4.715 2.533-6.17 1.705-1.454 4.152-2.197 7.343-2.228h2.017v-2.04c0-1.143-.195-1.948-.586-2.417-.391-.47-.962-.704-1.713-.704-1.657 0-2.486.97-2.486 2.909h-6.639c0-2.346.876-4.277 2.627-5.794 1.767-1.533 3.996-2.3 6.686-2.3 2.784 0 4.934.728 6.45 2.183 1.533 1.438 2.3 3.503 2.3 6.192v11.94c.031 2.19.344 3.902.938 5.138v.399h-6.686zm-3.918-4.739c.735 0 1.36-.148 1.877-.445.516-.298.899-.65 1.15-1.056v-5.278h-1.596c-1.126 0-2.017.36-2.674 1.079-.642.72-.962 1.681-.962 2.885 0 1.877.735 2.815 2.205 2.815zM112.93 17.054l-2.205-.188c-1.815 0-3.042.798-3.683 2.393v16.773h-6.663V10.65h6.264l.187 2.745c1.048-2.143 2.495-3.214 4.34-3.214.751 0 1.361.102 1.83.305l-.07 6.568z" fill="#fff"/></svg>
